Hatter-kde/actions/24/filename-discnumber-amarok.svg

<svg xmlns="http://www.w3.org/2000/svg" viewBox="0 0 24 24">
  <defs id="defs3051">
    <style type="text/css" id="current-color-scheme">
      .ColorScheme-Text {
        color:#363636;
      }
      </style>
  </defs><g transform="translate(1,1)">
 <path 
     style="fill:currentColor;fill-opacity:1;stroke:none" 
     d="M 11 3 A 8 7.9999914 0 0 0 10.193359 3.0410156 C 7.9781007 3.2609055 6.0390519 4.3804736 4.7324219 6.0273438 C 4.5681981 6.2343306 4.4148513 6.44885 4.2714844 6.671875 A 8 7.9999914 0 0 0 4.2578125 6.6953125 C 4.1186928 6.9133575 3.9889588 7.1372489 3.8710938 7.3691406 A 8 7.9999914 0 0 0 3.8691406 7.375 C 3.7565457 7.5969449 3.6544255 7.8251922 3.5625 8.0585938 A 8 7.9999914 0 0 0 3.5058594 8.2128906 C 3.4362008 8.401092 3.3720515 8.5904937 3.3164062 8.7851562 A 8 7.9999914 0 0 0 3.2539062 9.0214844 C 3.2090992 9.198613 3.1675988 9.376901 3.1347656 9.5585938 A 8 7.9999914 0 0 0 3.0917969 9.8398438 C 3.0692022 9.9963134 3.048625 10.153178 3.0351562 10.3125 A 8 7.9999914 0 0 0 3 11 A 8 7.9999914 0 0 0 3.0410156 11.806641 C 3.2609055 14.0219 4.3804736 15.960948 6.0273438 17.267578 C 6.2343306 17.431802 6.44885 17.585149 6.671875 17.728516 A 8 7.9999914 0 0 0 6.6953125 17.742188 C 6.9133575 17.881307 7.1372489 18.011041 7.3691406 18.128906 C 7.3691406 18.128906 7.3710938 18.128906 7.3710938 18.128906 A 8 7.9999914 0 0 0 7.375 18.130859 C 7.5969449 18.243454 7.8251922 18.345575 8.0585938 18.4375 A 8 7.9999914 0 0 0 8.2128906 18.494141 C 8.401092 18.563799 8.5904937 18.627949 8.7851562 18.683594 A 8 7.9999914 0 0 0 9.0214844 18.746094 C 9.198613 18.790901 9.376901 18.832401 9.5585938 18.865234 A 8 7.9999914 0 0 0 9.8398438 18.908203 C 9.9963134 18.930798 10.153178 18.951375 10.3125 18.964844 A 8 7.9999914 0 0 0 11 19 A 8 7.9999914 0 0 0 12 18.929688 L 12 17.921875 A 7 7 0 0 1 11 18 C 10.763555 18 10.53107 17.987519 10.300781 17.964844 A 7 7 0 0 1 9.6777344 17.871094 A 7 7 0 0 1 9.609375 17.861328 C 9.609375 17.861328 9.6074219 17.861328 9.6074219 17.861328 A 7 7 0 0 1 4.765625 14.181641 A 7 7 0 0 1 4.7539062 14.160156 A 7 7 0 0 1 4.4863281 13.560547 C 4.4752533 13.532247 4.4657947 13.503089 4.4550781 13.474609 A 7 7 0 0 1 4.2734375 12.927734 C 4.2554901 12.864605 4.2408237 12.800182 4.2246094 12.736328 A 7 7 0 0 1 4.1210938 12.279297 C 4.1038531 12.185357 4.0915996 12.089377 4.078125 11.994141 A 7 7 0 0 1 4.0292969 11.589844 C 4.0131018 11.394712 4 11.199454 4 11 C 4 10.763555 4.0124807 10.53107 4.0351562 10.300781 A 7 7 0 0 1 4.1289062 9.6777344 A 7 7 0 0 1 4.1386719 9.6074219 A 7 7 0 0 1 7.8183594 4.765625 A 7 7 0 0 1 7.8398438 4.7539062 A 7 7 0 0 1 8.4394531 4.4863281 C 8.4677527 4.4752533 8.4969107 4.4657947 8.5253906 4.4550781 A 7 7 0 0 1 9.0722656 4.2734375 C 9.1353948 4.2554901 9.1998178 4.2408237 9.2636719 4.2246094 A 7 7 0 0 1 9.7207031 4.1210938 C 9.8146433 4.1038531 9.9106235 4.0915996 10.005859 4.078125 A 7 7 0 0 1 10.410156 4.0292969 C 10.605288 4.0131018 10.800546 4 11 4 A 7 7 0 0 1 11.699219 4.0351562 A 7 7 0 0 1 12.322266 4.1289062 A 7 7 0 0 1 12.390625 4.1386719 C 12.390625 4.1386719 12.392578 4.1386719 12.392578 4.1386719 A 7 7 0 0 1 17.234375 7.8183594 A 7 7 0 0 1 17.238281 7.8242188 C 17.24092 7.8294115 17.243468 7.8346434 17.246094 7.8398438 A 7 7 0 0 1 17.513672 8.4394531 C 17.524747 8.4677527 17.534205 8.4969107 17.544922 8.5253906 A 7 7 0 0 1 17.726562 9.0722656 C 17.74451 9.1353948 17.759176 9.1998178 17.775391 9.2636719 A 7 7 0 0 1 17.878906 9.7207031 C 17.896147 9.8146433 17.9084 9.9106235 17.921875 10.005859 A 7 7 0 0 1 17.970703 10.410156 C 17.986898 10.605288 18 10.800546 18 11 A 7 7 0 0 1 17.919922 12 L 18.927734 12 A 8 7.9999914 0 0 0 19 11 C 19 10.73027 18.986759 10.463892 18.960938 10.201172 A 8 7.9999914 0 0 0 18.958984 10.193359 C 18.739094 7.9781007 17.619526 6.0390519 15.972656 4.7324219 C 15.765669 4.5681981 15.55115 4.4148513 15.328125 4.2714844 C 15.326152 4.270216 15.32424 4.2688449 15.322266 4.2675781 A 8 7.9999914 0 0 0 15.304688 4.2578125 C 15.086641 4.1186928 14.862751 3.9889588 14.630859 3.8710938 C 14.630859 3.8710938 14.628906 3.8710938 14.628906 3.8710938 A 8 7.9999914 0 0 0 14.625 3.8691406 C 14.403055 3.7565457 14.174808 3.6544255 13.941406 3.5625 A 8 7.9999914 0 0 0 13.787109 3.5058594 C 13.598908 3.4362008 13.409506 3.3720515 13.214844 3.3164062 A 8 7.9999914 0 0 0 12.978516 3.2539062 C 12.801387 3.2090992 12.623099 3.1675988 12.441406 3.1347656 A 8 7.9999914 0 0 0 12.160156 3.0917969 C 12.003686 3.0692022 11.846822 3.048625 11.6875 3.0351562 A 8 7.9999914 0 0 0 11 3 z M 11 5 C 7.676 5 5 7.676 5 11 L 8 11 C 8 9.338 9.338 8 11 8 L 11 5 z M 11 9 C 9.892 9 9 9.892 9 11 C 9 12.108 9.892 13 11 13 L 11 12 C 10.446 12 10 11.554 10 11 C 10 10.446 10.446 10 11 10 C 11.554 10 12 10.446 12 11 L 13 11 C 13 9.892 12.108 9 11 9 z M 14 13 L 14 14 L 13 14 L 13 15 L 14 15 L 14 17 L 13 17 L 13 18 L 14 18 L 14 19 L 15 19 L 15 18 L 17 18 L 17 19 L 18 19 L 18 18 L 19 18 L 19 17 L 18 17 L 18 15 L 19 15 L 19 14 L 18 14 L 18 13 L 17 13 L 17 14 L 15 14 L 15 13 L 14 13 z M 15 15 L 17 15 L 17 17 L 15 17 L 15 15 z "
     class="ColorScheme-Text"
     />
</g></svg>

<?xml version="1.0" encoding="UTF-8"?>
<svg viewBox="0 0 24 24" xmlns="http://www.w3.org/2000/svg">
 <defs id="defs3051">
  <style id="current-color-scheme" type="text/css">.ColorScheme-Text {
        color:#363636;
      }</style>
 </defs>
 <g transform="translate(1,1)">
  <path class="ColorScheme-Text" d="m11 3a8 8 0 0 0-0.80664 0.041016c-2.2153 0.21989-4.1543 1.3395-5.4609 2.9863-0.16422 0.20699-0.31757 0.42151-0.46094 0.64453a8 8 0 0 0-0.013672 0.023438c-0.13912 0.21804-0.26885 0.44194-0.38672 0.67383a8 8 0 0 0-0.0019532 0.0058594c-0.11259 0.22194-0.21472 0.45019-0.30664 0.68359a8 8 0 0 0-0.056641 0.1543c-0.069659 0.1882-0.13381 0.3776-0.18945 0.57227a8 8 0 0 0-0.0625 0.23633c-0.044807 0.17713-0.086307 0.35542-0.11914 0.53711a8 8 0 0 0-0.042969 0.28125c-0.022595 0.15647-0.043172 0.31333-0.056641 0.47266a8 8 0 0 0-0.035156 0.6875 8 8 0 0 0 0.041016 0.80664c0.21989 2.2153 1.3395 4.1543 2.9863 5.4609 0.20699 0.16422 0.42151 0.31757 0.64453 0.46094a8 8 0 0 0 0.023438 0.013672c0.21804 0.13912 0.44194 0.26885 0.67383 0.38672h0.0019532a8 8 0 0 0 0.0039062 0.001953c0.22194 0.1126 0.45019 0.21472 0.68359 0.30664a8 8 0 0 0 0.1543 0.056641c0.1882 0.069658 0.3776 0.13381 0.57227 0.18945a8 8 0 0 0 0.23633 0.0625c0.17713 0.044807 0.35542 0.086307 0.53711 0.11914a8 8 0 0 0 0.28125 0.042969c0.15647 0.022595 0.31333 0.043172 0.47266 0.056641a8 8 0 0 0 0.6875 0.035156 8 8 0 0 0 1-0.070312v-1.0078a7 7 0 0 1-1 0.078125c-0.23644 0-0.46893-0.012481-0.69922-0.035156a7 7 0 0 1-0.62305-0.09375 7 7 0 0 1-0.068359-0.009766h-0.0019531a7 7 0 0 1-4.8418-3.6797 7 7 0 0 1-0.011719-0.021485 7 7 0 0 1-0.26758-0.59961c-0.011075-0.0283-0.020533-0.057458-0.03125-0.085938a7 7 0 0 1-0.18164-0.54688c-0.017947-0.063129-0.032614-0.12755-0.048828-0.19141a7 7 0 0 1-0.10352-0.45703c-0.017241-0.09394-0.029494-0.18992-0.042969-0.28516a7 7 0 0 1-0.048828-0.4043c-0.016195-0.19513-0.029297-0.39039-0.029297-0.58984 0-0.23644 0.012481-0.46893 0.035156-0.69922a7 7 0 0 1 0.09375-0.62305 7 7 0 0 1 0.0097657-0.070312 7 7 0 0 1 3.6797-4.8418 7 7 0 0 1 0.021484-0.011719 7 7 0 0 1 0.59961-0.26758c0.0283-0.011075 0.057458-0.020533 0.085938-0.03125a7 7 0 0 1 0.54688-0.18164c0.063129-0.017947 0.12755-0.032614 0.19141-0.048828a7 7 0 0 1 0.45703-0.10352c0.09394-0.017241 0.18992-0.029494 0.28516-0.042969a7 7 0 0 1 0.4043-0.048828c0.19513-0.016195 0.39039-0.029297 0.58984-0.029297a7 7 0 0 1 0.69922 0.035156 7 7 0 0 1 0.62305 0.09375 7 7 0 0 1 0.068359 0.0097657h0.001953a7 7 0 0 1 4.8418 3.6797 7 7 0 0 1 0.003906 0.0058594c0.002639 0.0051927 0.005187 0.010425 0.007813 0.015625a7 7 0 0 1 0.26758 0.59961c0.011075 0.0283 0.020533 0.057458 0.03125 0.085938a7 7 0 0 1 0.18164 0.54688c0.017948 0.063129 0.032614 0.12755 0.048829 0.19141a7 7 0 0 1 0.10352 0.45703c0.017241 0.09394 0.029494 0.18992 0.042969 0.28516a7 7 0 0 1 0.048828 0.4043c0.016195 0.19513 0.029297 0.39039 0.029297 0.58984a7 7 0 0 1-0.080078 1h1.0078a8 8 0 0 0 0.072266-1c0-0.26973-0.013241-0.53611-0.039062-0.79883a8 8 0 0 0-0.001954-0.007813c-0.21989-2.2153-1.3395-4.1543-2.9863-5.4609-0.20699-0.16422-0.42151-0.31757-0.64453-0.46094-0.001973-0.0012684-0.003885-0.0026395-0.005859-0.0039063a8 8 0 0 0-0.017578-0.0097656c-0.21805-0.13912-0.44194-0.26885-0.67383-0.38672h-0.001953a8 8 0 0 0-0.003906-0.0019532c-0.22194-0.11259-0.45019-0.21472-0.68359-0.30664a8 8 0 0 0-0.1543-0.056641c-0.1882-0.069659-0.3776-0.13381-0.57226-0.18945a8 8 0 0 0-0.23633-0.0625c-0.17713-0.044807-0.35542-0.086307-0.53711-0.11914a8 8 0 0 0-0.28125-0.042969c-0.15647-0.022595-0.31333-0.043172-0.47266-0.056641a8 8 0 0 0-0.6875-0.035156zm0 2c-3.324 0-6 2.676-6 6h3c0-1.662 1.338-3 3-3v-3zm0 4c-1.108 0-2 0.892-2 2s0.892 2 2 2v-1c-0.554 0-1-0.446-1-1s0.446-1 1-1 1 0.446 1 1h1c0-1.108-0.892-2-2-2zm3 4v1h-1v1h1v2h-1v1h1v1h1v-1h2v1h1v-1h1v-1h-1v-2h1v-1h-1v-1h-1v1h-2v-1h-1zm1 2h2v2h-2v-2z" fill="currentColor"/>
 </g>
</svg>
